X:115
T:Egan's Hornpipe (#328)
M:4/4
L:1/8
S:Rice-Walsh manuscript
R:Hornpipe
K:D
(ABc|dAFA defg|(3agf bg agfg|afbf gfed|(3efe (3dcB Agfe|
dAFA defg|(3agf bg agfg|(3agf (3gfe (3fed (3edc|d2 dd d2:|
|:fg|aba^g a2 fg|gagf gfed|(3fff (3fff fagf|(3efe (3dcB A=3Dgfe|
dAFA defg|(3agf bg agfg|(3agf (3gfe (3fed (3edc|d2 dd d2:||
